X: 205
T:Iniquos odio habuvi
N: Derived from Jos1706-Iniquos_odio_habuvi.krn
C: Josquin des Prez
%%abc-version 2.0
%%abcx-abcm2ps-target-version 5.9.1 (29 Sep 2008)
%%abc-creator hum2abc beta
%%abcx-conversion-date 2019/02/12 16:15:48
%%abc-edited-by Jesse Rodin
%%abc-edited-by Chris Gage 06-11-2012
%%abcx-initial-encoding-date 2012/06/29/
%%humdrum-veritas 3572233847
%%humdrum-veritas-data 2190578448
%%linebreak <none>
%%barnumbers 0
L: 1/4
M: 2/1
Q: 1/2=120
K: C clef=treble-8
Z3 | 
z4c4- | 
c8- | 
c4A4- | 
A8- | 
A4B4- | 
B8- | 
B4G4- | 
G8- | 
G4z4 | 
Z4 | 
z4c4- | 
c4A4- | 
A4B4- | 
B4G4- | 
G4z4 | 
z8 | 
z4c4 | 
A4B4 | 
G4z4 | 
z8 | 
z4c2A2 | 
B2G2z4 | 
z8 | 
z4A4 | 
c4B4 | 
A4c4 | 
B8 | 
Z12 | 
z4c4- | 
c2c2d4- | 
d4!fermata!c4- | 
c4z2A2 | 
d4A4 | 
z8 | 
A4B2c2 | 
d2d2e4 | 
z8 | 
z4c4 | 
c2c2c2c2 | 
B8 | 
z4c4 | 
B4A4 | 
c2A4G2 | 
A2GFE4 | 
D8 | 
z4d4 | 
c2A2B2c2 | 
d4z4 | 
Z2 | 
e4e2e2 | 
d2d2d2d2 | 
c8 | 
B8 | 
Z3 | 
c4c2c2 | 
c2c2c2c2 | 
A3GF4 | 
E4E4 | 
D4d4 | 
c8 | 
c8 |]  



